mimes/64/font-x-generic.svg

<?xml version="1.0" encoding="UTF-8" standalone="no"?>
<svg
   xmlns:dc="http://purl.org/dc/elements/1.1/"
   xmlns:cc="http://creativecommons.org/ns#"
   xmlns:rdf="http://www.w3.org/1999/02/22-rdf-syntax-ns#"
   xmlns:svg="http://www.w3.org/2000/svg"
   xmlns="http://www.w3.org/2000/svg"
   xmlns:xlink="http://www.w3.org/1999/xlink"
   version="1.0"
   width="64"
   height="64"
   id="svg3486">
  <metadata
     id="metadata201560">
    <rdf:RDF>
      <cc:Work
         rdf:about="">
        <dc:format>image/svg+xml</dc:format>
        <dc:type
           rdf:resource="http://purl.org/dc/dcmitype/StillImage" />
      </cc:Work>
    </rdf:RDF>
  </metadata>
  <defs
     id="defs3488">
    <linearGradient
       id="linearGradient9936">
      <stop
         id="stop9938"
         style="stop-color:#575757;stop-opacity:1"
         offset="0" />
      <stop
         id="stop9940"
         style="stop-color:#333333;stop-opacity:1"
         offset="1" />
    </linearGradient>
    <linearGradient
       id="linearGradient2490">
      <stop
         id="stop2492"
         style="stop-color:#791235;stop-opacity:1"
         offset="0" />
      <stop
         id="stop2494"
         style="stop-color:#dd3b27;stop-opacity:1"
         offset="1" />
    </linearGradient>
    <linearGradient
       id="linearGradient3242">
      <stop
         id="stop3244"
         style="stop-color:#f8b17e;stop-opacity:1"
         offset="0" />
      <stop
         id="stop3246"
         style="stop-color:#e35d4f;stop-opacity:1"
         offset="0.31209752" />
      <stop
         id="stop3248"
         style="stop-color:#c6262e;stop-opacity:1"
         offset="0.57054454" />
      <stop
         id="stop3250"
         style="stop-color:#690b54;stop-opacity:1"
         offset="1" />
    </linearGradient>
    <linearGradient
       id="linearGradient3434">
      <stop
         id="stop3436"
         style="stop-color:#ffffff;stop-opacity:0"
         offset="0" />
      <stop
         id="stop3438"
         style="stop-color:#ffffff;stop-opacity:1"
         offset="1" />
    </linearGradient>
    <linearGradient
       id="linearGradient3463">
      <stop
         id="stop3465"
         style="stop-color:#000000;stop-opacity:1"
         offset="0" />
      <stop
         id="stop3467"
         style="stop-color:#000000;stop-opacity:0"
         offset="1" />
    </linearGradient>
    <linearGradient
       x1="15"
       y1="17"
       x2="15"
       y2="33.434338"
       id="linearGradient3260"
       xlink:href="#linearGradient3434"
       gradientUnits="userSpaceOnUse"
       gradientTransform="matrix(1.7500001,0,0,1.7586208,0.8749999,-18.758621)" />
    <linearGradient
       x1="14.498855"
       y1="44.178928"
       x2="14.498855"
       y2="15.875"
       id="linearGradient3263"
       xlink:href="#linearGradient3434"
       gradientUnits="userSpaceOnUse"
       gradientTransform="matrix(1.866667,0,0,1.7681819,-0.6125,-18.813272)" />
    <linearGradient
       x1="22.05551"
       y1="15.833781"
       x2="22.05551"
       y2="45.49704"
       id="linearGradient3266"
       xlink:href="#linearGradient9936"
       gradientUnits="userSpaceOnUse"
       gradientTransform="matrix(1.7272287,0,0,1.7787465,0.2347216,-20.543594)" />
    <radialGradient
       cx="-6.1603441"
       cy="36.686291"
       r="14.09771"
       fx="-6.1603441"
       fy="36.686291"
       id="radialGradient3272"
       xlink:href="#linearGradient3463"
       gradientUnits="userSpaceOnUse"
       gradientTransform="matrix(0.517352,0,0,0.3900607,11.480545,43.190118)" />
    <radialGradient
       cx="-6.1603441"
       cy="36.686291"
       r="14.09771"
       fx="-6.1603441"
       fy="36.686291"
       id="radialGradient3275"
       xlink:href="#linearGradient3463"
       gradientUnits="userSpaceOnUse"
       gradientTransform="matrix(1.6931519,0,0,0.3854196,35.299964,43.425814)" />
    <radialGradient
       cx="-6.1603441"
       cy="36.686291"
       r="14.09771"
       fx="-6.1603441"
       fy="36.686291"
       id="radialGradient3278"
       xlink:href="#linearGradient3463"
       gradientUnits="userSpaceOnUse"
       gradientTransform="matrix(1.41096,0,0,0.3900607,50.800695,43.190118)" />
    <linearGradient
       x1="143.91531"
       y1="75.220741"
       x2="143.91531"
       y2="103.12598"
       id="linearGradient3281"
       xlink:href="#linearGradient3242"
       gradientUnits="userSpaceOnUse"
       gradientTransform="matrix(2.0013313,0,0,1.9640004,-245.52219,-128.21556)" />
    <linearGradient
       x1="153.40933"
       y1="98.784538"
       x2="153.40933"
       y2="75.220741"
       id="linearGradient3283"
       xlink:href="#linearGradient2490"
       gradientUnits="userSpaceOnUse"
       gradientTransform="matrix(2.0013313,0,0,1.9640004,-245.52219,-128.21556)" />
    <radialGradient
       cx="-6.1603441"
       cy="36.686291"
       r="14.09771"
       fx="-6.1603441"
       fy="36.686291"
       id="radialGradient3286"
       xlink:href="#linearGradient3463"
       gradientUnits="userSpaceOnUse"
       gradientTransform="matrix(0.517352,0,0,0.3900607,44.632721,43.190117)" />
    <linearGradient
       x1="153.40933"
       y1="98.784538"
       x2="153.40933"
       y2="75.220741"
       id="linearGradient3294"
       xlink:href="#linearGradient3434"
       gradientUnits="userSpaceOnUse"
       gradientTransform="matrix(2.0013313,0,0,1.9640004,-245.52219,-128.21556)" />
  </defs>
  <path
     d="M 48.739133,57.499999 C 48.739891,60.537398 45.474268,62.999999 41.445654,62.999999 C 37.41704,62.999999 34.151416,60.537398 34.152175,57.499999 C 34.151416,54.462601 37.41704,52 41.445654,52 C 45.474268,52 48.739891,54.462601 48.739133,57.499999 L 48.739133,57.499999 z"
     id="path3478"
     style="opacity:0.2;fill:url(#radialGradient3286);fill-opacity:1;fill-rule:evenodd;stroke:none;stroke-width:0.99999988;stroke-linecap:butt;stroke-linejoin:round;marker:none;marker-start:none;marker-mid:none;marker-end:none;stroke-miterlimit:4;stroke-dasharray:none;stroke-dashoffset:0;stroke-opacity:1;visibility:visible;display:inline;overflow:visible;enable-background:accumulate" />
  <path
     d="M 58.626883,23.028531 C 57.651165,20.798957 55.270075,21.032495 53.636479,20.678354 C 48.228158,20.050756 42.829103,21.051675 38.296278,24.122557 C 33.921272,27.112026 29.962458,31.156779 27.181585,36.376325 C 24.764445,41.02582 23.679063,47.237268 25.204058,53.15416 C 26.404326,57.137301 30.017563,59.597546 33.064879,58.934142 C 37.729978,58.14943 41.054318,53.782183 43.796683,49.521604 C 45.036801,47.764564 45.798554,45.437598 47.262345,43.960961 C 47.054022,47.747457 46.960734,51.680324 47.813959,55.525408 C 48.2989,57.7926 50.072885,59.579862 51.870748,59.497242 C 53.699852,59.285545 55.092164,57.684316 56.608443,56.639303 C 57.9722,55.420878 59.534361,54.373243 60.499998,52.611654 C 60.333652,49.693595 57.747194,51.52589 56.844384,52.527442 C 55.582309,54.530757 52.974848,52.938932 53.53263,50.212741 C 53.824641,43.985673 55.264224,38.137889 56.481761,32.26702 C 57.166231,29.171987 57.886733,26.095 58.626886,23.028531 L 58.626883,23.028531 z M 51.071716,26.91419 C 48.754823,34.295737 46.252026,41.808564 41.970082,47.53168 C 39.949857,50.142717 36.987831,52.510365 33.721896,51.254417 C 31.464951,50.245007 30.942058,46.926246 30.893218,44.429662 C 30.601945,37.057388 34.131183,30.951524 38.543336,27.268337 C 41.618851,24.798939 45.594089,23.681245 49.476802,24.887169 C 50.209822,25.16245 51.004938,25.875024 51.071716,26.914193 L 51.071716,26.91419 z"
     id="text2400"
     style="font-size:55.90206146px;font-style:normal;font-variant:normal;font-weight:normal;font-stretch:normal;text-align:start;line-height:100%;writing-mode:lr-tb;text-anchor:start;fill:url(#linearGradient3281);fill-opacity:1;fill-rule:evenodd;stroke:url(#linearGradient3283);stroke-width:0.99999994;stroke-linecap:butt;stroke-linejoin:miter;marker:none;marker-start:none;marker-mid:none;marker-end:none;stroke-miterlimit:4;stroke-dasharray:none;stroke-dashoffset:0;stroke-opacity:1;visibility:visible;display:inline;overflow:visible;enable-background:accumulate;font-family:Gabrielle;-inkscape-font-specification:Gabrielle" />
  <path
     d="M 62,57.500001 C 62.002069,60.537399 53.095823,63 42.108696,63 C 31.12157,63 22.215324,60.537399 22.217392,57.500001 C 22.215324,54.462602 31.12157,52.000001 42.108696,52.000001 C 53.095823,52.000001 62.002069,54.462602 62,57.500001 L 62,57.500001 z"
     id="path3461"
     style="opacity:0.2;fill:url(#radialGradient3278);fill-opacity:1;fill-rule:evenodd;stroke:none;stroke-width:0.99999988;stroke-linecap:butt;stroke-linejoin:round;marker:none;marker-start:none;marker-mid:none;marker-end:none;stroke-miterlimit:4;stroke-dasharray:none;stroke-dashoffset:0;stroke-opacity:1;visibility:visible;display:inline;overflow:visible;enable-background:accumulate" />
  <path
     d="M 48.73913,57.56543 C 48.741613,60.566688 38.054117,62.999988 24.869566,62.999988 C 11.685014,62.999988 0.99751909,60.566688 1.0000012,57.56543 C 0.99751909,54.564173 11.685014,52.130873 24.869566,52.130873 C 38.054117,52.130873 48.741613,54.564173 48.73913,57.56543 L 48.73913,57.56543 z"
     id="path3482"
     style="opacity:0.05;fill:url(#radialGradient3275);fill-opacity:1;fill-rule:evenodd;stroke:none;stroke-width:0.99999988;stroke-linecap:butt;stroke-linejoin:round;marker:none;marker-start:none;marker-mid:none;marker-end:none;stroke-miterlimit:4;stroke-dasharray:none;stroke-dashoffset:0;stroke-opacity:1;visibility:visible;display:inline;overflow:visible;enable-background:accumulate" />
  <path
     d="M 15.586958,57.500001 C 15.587716,60.537399 12.322093,63 8.2934791,63 C 4.2648656,63 0.99924167,60.537399 1.0000001,57.500001 C 0.99924167,54.462602 4.2648656,52.000001 8.293479,52.000001 C 12.322093,52.000001 15.587716,54.462602 15.586958,57.500001 L 15.586958,57.500001 z"
     id="path3474"
     style="opacity:0.2;fill:url(#radialGradient3272);fill-opacity:1;fill-rule:evenodd;stroke:none;stroke-width:0.99999988;stroke-linecap:butt;stroke-linejoin:round;marker:none;marker-start:none;marker-mid:none;marker-end:none;stroke-miterlimit:4;stroke-dasharray:none;stroke-dashoffset:0;stroke-opacity:1;visibility:visible;display:inline;overflow:visible;enable-background:accumulate" />
  <path
     d="M 49.625,21.5625 C 45.776484,21.716617 42.07226,22.781511 38.84375,24.96875 C 34.58648,27.877768 30.789734,31.783536 28.09375,36.84375 C 25.790649,41.273886 24.76556,47.267956 26.21875,52.90625 C 27.290543,56.463041 30.469638,58.454347 32.84375,57.9375 C 32.864578,57.93686 32.885422,57.93686 32.90625,57.9375 C 37.041325,57.241942 40.225837,53.18163 42.9375,48.96875 C 42.93734,48.958334 42.93734,48.947916 42.9375,48.9375 C 44.047129,47.365341 44.815855,44.980449 46.53125,43.25 C 46.831566,42.962574 47.2766,42.886905 47.655036,43.058921 C 48.033472,43.230937 48.269085,43.615992 48.25,44.03125 C 48.04299,47.793893 47.99402,51.623994 48.8125,55.3125 C 49.209616,57.169084 50.718699,58.489716 51.8125,58.46875 C 53.055207,58.287857 54.315489,56.996728 55.90625,55.875 C 55.947208,55.838407 55.990332,55.817305 56.03125,55.78125 C 57.350808,54.618506 58.593976,53.658668 59.40625,52.34375 C 59.374574,52.261943 59.323967,52.015439 59.34375,52.03125 C 59.385653,52.064741 59.428431,52.035682 59.21875,52.09375 C 58.799388,52.209886 57.927157,52.848878 57.59375,53.21875 L 57.5625,53.1875 C 57.136698,53.777271 56.577138,54.266815 55.9375,54.40625 C 55.234877,54.559416 54.505094,54.37408 53.9375,54 C 52.839493,53.276344 52.254821,51.794491 52.53125,50.15625 C 52.532245,50.135033 52.530229,50.114957 52.53125,50.09375 C 52.537361,50.060366 52.524391,50.033526 52.53125,50 L 52.5625,50 C 52.877224,43.709759 54.266462,37.859841 55.46875,32.0625 C 56.123171,29.103337 56.82597,26.146175 57.53125,23.21875 C 57.186559,22.609988 56.756461,22.313643 56.09375,22.125 C 55.363892,21.917243 54.430707,21.877889 53.5,21.6875 C 53.468543,21.68385 53.437692,21.691033 53.40625,21.6875 C 52.136752,21.544846 50.877599,21.512338 49.625,21.5625 z M 46.59375,23.375 C 47.640876,23.403395 48.713353,23.574574 49.78125,23.90625 C 49.791892,23.916439 49.802311,23.926858 49.8125,23.9375 C 50.86311,24.33205 51.964568,25.319782 52.0625,26.84375 C 52.075506,26.969606 52.064908,27.096783 52.03125,27.21875 C 49.710991,34.61102 47.205641,42.211494 42.78125,48.125 C 42.78141,48.135416 42.78141,48.145834 42.78125,48.15625 C 41.714747,49.534651 40.369467,50.888548 38.78125,51.75 C 37.193033,52.611452 35.272316,52.92915 33.34375,52.1875 C 33.333334,52.18766 33.322916,52.18766 33.3125,52.1875 C 31.832232,51.525456 30.996967,50.13854 30.53125,48.71875 C 30.065533,47.29896 29.900593,45.77701 29.875,44.46875 C 29.570156,36.752961 33.242147,30.367423 37.875,26.5 C 37.885416,26.49984 37.895834,26.49984 37.90625,26.5 C 40.37535,24.517506 43.418489,23.288897 46.59375,23.375 z"
     id="path3292"
     style="font-size:55.90206146px;font-style:normal;font-variant:normal;font-weight:normal;font-stretch:normal;text-align:start;line-height:100%;writing-mode:lr-tb;text-anchor:start;opacity:0.4;fill:none;fill-opacity:1;fill-rule:evenodd;stroke:url(#linearGradient3294);stroke-width:0.99999994;stroke-linecap:butt;stroke-linejoin:miter;marker:none;marker-start:none;marker-mid:none;marker-end:none;stroke-miterlimit:4;stroke-dasharray:none;stroke-dashoffset:0;stroke-opacity:1;visibility:visible;display:inline;overflow:visible;enable-background:accumulate;font-family:Gabrielle;-inkscape-font-specification:Gabrielle" />
  <path
     d="M 39.090361,59.499999 C 39.090361,59.499999 34.311831,44.5 34.311831,44.5 C 34.311831,44.5 14.739648,44.5 14.739648,44.5 C 14.739648,44.5 9.8421685,59.499999 9.8421685,59.499999 C 9.8421685,59.499999 5.6140556,59.499999 3.4999999,59.499999 C 9.5385545,42.499999 15.577108,25.5 21.615665,8.4999996 C 23.52731,8.4999996 25.438956,8.4999996 27.350604,8.4999996 C 33.400402,25.5 39.450202,42.499999 45.500002,59.499999 C 43.363457,59.499999 39.090361,59.499999 39.090361,59.499999 z M 32.374999,38.5 C 32.374999,38.5 24.5,16.413791 24.5,16.413791 C 24.5,16.413791 16.625,38.5 16.625,38.5 C 16.625,38.5 32.374999,38.5 32.374999,38.5 z"
     id="text2396"
     style="font-size:40px;font-style:normal;font-variant:normal;font-weight:normal;font-stretch:normal;fill:url(#linearGradient3266);fill-opacity:1;stroke:#333333;stroke-width:0.99999982px;stroke-linecap:butt;stroke-linejoin:miter;stroke-opacity:1;font-family:Droid Sans;-inkscape-font-specification:Sans" />
  <path
     d="M 44.099466,58.553529 C 44.099466,58.553529 26.651542,9.5 26.651542,9.5 C 26.651542,9.5 22.323065,9.5 22.323065,9.5 C 22.323065,9.5 4.857639,58.716681 4.857639,58.716681"
     id="path3422"
     style="font-size:40px;font-style:normal;font-variant:normal;font-weight:normal;font-stretch:normal;opacity:0.3;fill:none;fill-opacity:1;stroke:url(#linearGradient3263);stroke-width:0.99999982px;stroke-linecap:butt;stroke-linejoin:miter;stroke-opacity:1;font-family:Droid Sans;-inkscape-font-specification:Sans" />
  <path
     d="M 24.5,13.5 L 33.812805,39.5 L 15.187195,39.5 L 24.5,13.5 z"
     id="path3447"
     style="opacity:0.2;fill:none;fill-rule:evenodd;stroke:url(#linearGradient3260);stroke-width:0.99999982px;stroke-linecap:butt;stroke-linejoin:round;stroke-opacity:1" />
</svg>

<svg xmlns="http://www.w3.org/2000/svg" xmlns:xlink="http://www.w3.org/1999/xlink" viewBox="0 0 64 64"><defs><linearGradient id="b"><stop offset="0" stop-color="#575757"/><stop offset="1" stop-color="#333"/></linearGradient><linearGradient id="e"><stop offset="0" stop-color="#791235"/><stop offset="1" stop-color="#dd3b27"/></linearGradient><linearGradient id="d"><stop offset="0" stop-color="#f8b17e"/><stop offset=".312" stop-color="#e35d4f"/><stop offset=".571" stop-color="#c6262e"/><stop offset="1" stop-color="#690b54"/></linearGradient><linearGradient id="a"><stop offset="0" stop-color="#fff" stop-opacity="0"/><stop offset="1" stop-color="#fff"/></linearGradient><linearGradient id="c"><stop offset="0"/><stop offset="1" stop-opacity="0"/></linearGradient><linearGradient x1="15" y1="17" x2="15" y2="33.434" id="o" xlink:href="#a" gradientUnits="userSpaceOnUse" gradientTransform="matrix(1.75 0 0 1.75862 .875 -18.76)"/><linearGradient x1="14.499" y1="44.179" x2="14.499" y2="15.875" id="n" xlink:href="#a" gradientUnits="userSpaceOnUse" gradientTransform="matrix(1.86667 0 0 1.76818 -.613 -18.813)"/><linearGradient x1="22.056" y1="15.834" x2="22.056" y2="45.497" id="m" xlink:href="#b" gradientUnits="userSpaceOnUse" gradientTransform="matrix(1.72723 0 0 1.77875 .235 -20.544)"/><radialGradient cx="-6.16" cy="36.686" r="14.098" fx="-6.16" fy="36.686" id="k" xlink:href="#c" gradientUnits="userSpaceOnUse" gradientTransform="matrix(.51735 0 0 .39006 11.48 43.19)"/><radialGradient cx="-6.16" cy="36.686" r="14.098" fx="-6.16" fy="36.686" id="j" xlink:href="#c" gradientUnits="userSpaceOnUse" gradientTransform="matrix(1.69315 0 0 .38542 35.3 43.426)"/><radialGradient cx="-6.16" cy="36.686" r="14.098" fx="-6.16" fy="36.686" id="i" xlink:href="#c" gradientUnits="userSpaceOnUse" gradientTransform="matrix(1.41096 0 0 .39006 50.8 43.19)"/><linearGradient x1="143.915" y1="75.221" x2="143.915" y2="103.126" id="g" xlink:href="#d" gradientUnits="userSpaceOnUse" gradientTransform="matrix(2.00133 0 0 1.964 -245.522 -128.216)"/><linearGradient x1="153.409" y1="98.785" x2="153.409" y2="75.221" id="h" xlink:href="#e" gradientUnits="userSpaceOnUse" gradientTransform="matrix(2.00133 0 0 1.964 -245.522 -128.216)"/><radialGradient cx="-6.16" cy="36.686" r="14.098" fx="-6.16" fy="36.686" id="f" xlink:href="#c" gradientUnits="userSpaceOnUse" gradientTransform="matrix(.51735 0 0 .39006 44.633 43.19)"/><linearGradient x1="153.409" y1="98.785" x2="153.409" y2="75.221" id="l" xlink:href="#a" gradientUnits="userSpaceOnUse" gradientTransform="matrix(2.00133 0 0 1.964 -245.522 -128.216)"/></defs><path d="M48.74 57.5c0 3.037-3.266 5.5-7.294 5.5-4.03 0-7.295-2.463-7.294-5.5 0-3.037 3.265-5.5 7.294-5.5 4.028 0 7.294 2.463 7.293 5.5z" opacity=".2" fill="url(#f)" fill-rule="evenodd" overflow="visible"/><path d="M58.627 23.03c-.976-2.23-3.357-1.998-4.99-2.352-5.41-.627-10.808.374-15.34 3.445-4.376 2.99-8.335 7.034-11.115 12.253-2.418 4.65-3.503 10.86-1.978 16.778 1.2 3.983 4.814 6.444 7.86 5.78 4.666-.785 7.99-5.152 10.733-9.412 1.24-1.757 2.002-4.084 3.465-5.56-.208 3.785-.3 7.718.552 11.563.485 2.268 2.26 4.055 4.057 3.972 1.83-.21 3.23-1.813 4.74-2.858 1.37-1.22 2.93-2.27 3.89-4.03-.16-2.92-2.75-1.09-3.65-.09-1.26 2.002-3.87.41-3.31-2.316.29-6.227 1.73-12.075 2.95-17.946a493.972 493.972 0 0 1 2.146-9.238zm-7.555 3.884c-2.317 7.382-4.82 14.895-9.102 20.618-2.02 2.61-4.982 4.978-8.248 3.722-2.257-1.01-2.78-4.328-2.83-6.824-.29-7.373 3.24-13.478 7.65-17.162 3.077-2.47 7.052-3.587 10.935-2.38.733.274 1.528.987 1.595 2.026z" style="text-align:start;line-height:100%;-inkscape-font-specification:Gabrielle" font-size="55.902" font-weight="400" fill="url(#g)" fill-rule="evenodd" stroke="url(#h)" overflow="visible" font-family="Gabrielle"/><path d="M62 57.5c.002 3.037-8.904 5.5-19.89 5.5-10.988 0-19.895-2.463-19.893-5.5-.002-3.037 8.905-5.5 19.892-5.5C53.09 52 62 54.463 62 57.5z" opacity=".2" fill="url(#i)" fill-rule="evenodd" overflow="visible"/><path d="M48.74 57.565C48.74 60.567 38.053 63 24.87 63 11.685 63 .998 60.567 1 57.565c-.002-3 10.685-5.434 23.87-5.434 13.184 0 23.872 2.44 23.87 5.44z" opacity=".05" fill="url(#j)" fill-rule="evenodd" overflow="visible"/><path d="M15.587 57.5c0 3.037-3.265 5.5-7.294 5.5C4.265 63 1 60.537 1 57.5S4.265 52 8.293 52c4.03 0 7.295 2.463 7.294 5.5z" opacity=".2" fill="url(#k)" fill-rule="evenodd" overflow="visible"/><path d="M49.625 21.563c-3.85.154-7.553 1.22-10.78 3.406-4.26 2.9-8.055 6.81-10.75 11.87-2.304 4.43-3.33 10.42-1.876 16.06 1.07 3.554 4.25 5.55 6.62 5.03h.06c4.132-.697 7.32-4.757 10.03-8.97v-.03c1.11-1.574 1.88-3.96 3.592-5.69a1.017 1.017 0 0 1 1.72.78c-.208 3.764-.257 7.594.562 11.28.396 1.86 1.905 3.18 3 3.16 1.24-.18 2.5-1.473 4.092-2.595.04-.037.083-.058.124-.094 1.32-1.16 2.566-2.12 3.378-3.436-.03-.083-.08-.33-.06-.314.04.037.082.008-.127.066-.42.118-1.29.757-1.624 1.127l-.03-.033c-.427.59-.987 1.08-1.626 1.22-.703.152-1.433-.03-2-.407-1.1-.725-1.683-2.207-1.407-3.845.003-.02 0-.04 0-.064.01-.034-.005-.06 0-.094h.033c.316-6.29 1.705-12.14 2.908-17.94a484.49 484.49 0 0 1 2.06-8.842c-.342-.61-.773-.905-1.435-1.094-.73-.21-1.664-.25-2.595-.44-.03-.004-.06.003-.094 0a24.866 24.866 0 0 0-3.78-.126zm-3.03 1.812c1.046.028 2.118.2 3.186.53.02.01.03.022.04.032 1.05.395 2.154 1.383 2.25 2.907a1.01 1.01 0 0 1-.03.375c-2.32 7.39-4.825 14.99-9.25 20.9v.03c-1.066 1.38-2.412 2.73-4 3.59-1.59.86-3.51 1.18-5.44.438h-.03c-1.48-.663-2.315-2.05-2.78-3.47-.466-1.42-.63-2.94-.657-4.25-.305-7.715 3.367-14.1 8-17.968h.03c2.47-1.983 5.513-3.21 8.69-3.126z" style="text-align:start;line-height:100%;-inkscape-font-specification:Gabrielle" font-size="55.902" font-weight="400" opacity=".4" fill="none" stroke="url(#l)" overflow="visible" font-family="Gabrielle"/><path d="M39.09 59.5l-4.778-15H14.74l-4.898 15H3.5c6.04-17 12.077-34 18.116-51h5.735l18.15 51h-6.41zm-6.715-21L24.5 16.414 16.625 38.5h15.75z" style="-inkscape-font-specification:Sans" font-size="40" font-weight="400" fill="url(#m)" stroke="#333" font-family="Droid Sans"/><path d="M44.1 58.554L26.65 9.5h-4.33L4.86 58.717" style="-inkscape-font-specification:Sans" font-size="40" font-weight="400" opacity=".3" fill="none" stroke="url(#n)" font-family="Droid Sans"/><path d="M24.5 13.5l9.313 26H15.187l9.313-26z" opacity=".2" fill="none" stroke="url(#o)" stroke-linejoin="round"/></svg>
